!!!COM: Ockeghem, Johannes
!!!CDT: ~1425-1497/02/06
!!!OTL: Mort tu as navr&eacute; / Miserere
!!!AGN: Song; Chanson
!!!SCT: Ock3013
!!!SCA: Ock3013
!!!voices: 4
**kern	**text	**kern	**text	**kern	**text	**kern	**text	**text	**text	**text	**text	**text
*staff4	*staff4	*staff3	*staff3	*staff2	*staff2	*staff1	*staff1	*staff1	*staff1	*staff1	*staff1	*staff1
*Ivox	*	*Ivox	*	*Ivox	*	*Ivox	*	*	*	*	*	*
*I"Contratenor Basis	*	*I"Tenor	*	*I"Contratenor	*	*I"Superius	*	*	*	*	*	*
*I'Cb	*	*I'T	*	*I'Ct	*	*I'S	*	*	*	*	*	*
*>[A,B]	*>[A,B]	*>[A,B]	*>[A,B]	*>[A,B]	*>[A,B]	*>[A,B]	*>[A,B]	*>[A,B]	*>[A,B]	*>[A,B]	*>[A,B]	*>[A,B]
*>A	*>A	*>A	*>A	*>A	*>A	*>A	*>A	*>A	*>A	*>A	*>A	*>A
*clefF4	*	*clefF4	*	*clefGv2	*	*clefG2	*	*	*	*	*	*
*k[b-]	*	*k[]	*	*k[]	*	*k[]	*	*	*	*	*	*
*M3/1	*	*M3/1	*	*M3/1	*	*M3/1	*	*	*	*	*	*
*met(O)	*	*met(O)	*	*met(O)	*	*met(O)	*	*	*	*	*	*
=1-	=1-	=1-	=1-	=1-	=1-	=1-	=1-	=1-	=1-	=1-	=1-	=1-
!!LO:TX:Z=12:t=Chanson-Motet (S text in ballade form)
1AA	Mi-	0A	Mi-	1e	Mi-	0.r	.	.	.	.	.	.
0D	.	.	.	1.f	.	.	.	.	.	.	.	.
.	.	[1A	-se-	.	.	.	.	.	.	.	.	.
.	.	.	.	2e	.	.	.	.	.	.	.	.
=2	=2	=2	=2	=2	=2	=2	=2	=2	=2	=2	=2	=2
1F	-se-	1A]	.	2d	.	0.r	.	.	.	.	.	.
.	.	.	.	2c	.	.	.	.	.	.	.	.
2E	.	2G	.	1c	-se-	.	.	.	.	.	.	.
2C	.	2E	.	.	.	.	.	.	.	.	.	.
1D	.	1F	.	2.B	.	.	.	.	.	.	.	.
.	.	.	.	4A	.	.	.	.	.	.	.	.
=3	=3	=3	=3	=3	=3	=3	=3	=3	=3	=3	=3	=3
0C	-re,	0G	-re-	2c	-re-	0.r	.	.	.	.	.	.
.	.	.	.	2d	.	.	.	.	.	.	.	.
.	.	.	.	1e	.	.	.	.	.	.	.	.
1D	.	1F	.	2A	.	.	.	.	.	.	.	.
.	.	.	.	2B-i	.	.	.	.	.	.	.	.
=4	=4	=4	=4	=4	=4	=4	=4	=4	=4	=4	=4	=4
1AA	.	1E	.	2A	.	0.r	.	.	.	.	.	.
.	.	.	.	2c	.	.	.	.	.	.	.	.
0BB-	.	1.D	.	2B-i	.	.	.	.	.	.	.	.
.	.	.	.	2.G	.	.	.	.	.	.	.	.
.	.	.	.	4F	.	.	.	.	.	.	.	.
.	.	2C	.	2G	.	.	.	.	.	.	.	.
=5	=5	=5	=5	=5	=5	=5	=5	=5	=5	=5	=5	=5
0AA	re,	0E	-re,	0.A	-re,	1.c	Mort,	En	Re-	Mu-	En	Puis
.	.	.	.	.	.	2d	.	.	.	.	.	.
1AA	pi-	1C	pi-	.	.	1e	tu	des-	-to-	-sic-	sa	a
=6	=6	=6	=6	=6	=6	=6	=6	=6	=6	=6	=6	=6
1BB-	.	1D	.	1r	.	1d	as	-plo-	-ric-	-que	jo-	es-
0C	.	1.E	.	1G	pi-	2.g	na-	-yant	-que	par	-nes-	-leu
.	.	.	.	.	.	4f	.	.	.	.	.	.
.	.	.	.	1c	.	1e	.	.	.	pi-	.	.
.	.	2G	.	.	.	.	.	.	.	.	.	.
=7	=7	=7	=7	=7	=7	=7	=7	=7	=7	=7	=7	=7
1D	.	2F	.	1A	.	0.d	-vr&eacute;	.	.	-teux	-se	.
.	.	2E	.	.	.	.	.	.	.	.	.	.
0GG	-e	0G	-e	0B-i	.	.	.	.	.	.	.	.
=8	=8	=8	=8	=8	=8	=8	=8	=8	=8	=8	=8	=8
1AA	.	1E	Je-	0A	-e	0c	.	.	.	.	.	.
1r	.	0F	.	.	.	.	.	.	.	.	.	.
1D	Je-	.	.	2r	.	2A	de	ton	se	re-	fut	la
.	.	.	.	2F	Je-	2B-i	.	.	.	.	.	.
=9	=9	=9	=9	=9	=9	=9	=9	=9	=9	=9	=9	=9
1C	.	0E	.	1G	.	1c	.	es-	Dieu	.	.	mil-
1AA	.	.	.	1A	.	1c	ton	-tan-	me	.	sou-	-leur
1BB-	.	[1D	.	1F	.	1d	dart	-dart	gard	-gard	-dart	part
=10	=10	=10	=10	=10	=10	=10	=10	=10	=10	=10	=10	=10
1GG	.	1D]	.	1G	.	1B-i	.	.	.	.	.	.
0AA	-su,	0C	-su,	0E	-su,	0A	.	.	.	.	.	.
=11	=11	=11	=11	=11	=11	=11	=11	=11	=11	=11	=11	=11
0A	Do-	0.D	Do-	1D	Do-	1r	.	.	.	.	.	.
.	.	.	.	1.d	.	0f#	Le	Sur	Son	A	De hon-	Ser-
1A	-mi-	.	.	.	.	.	.	.	.	.	.	.
.	.	.	.	2c	.	.	.	.	.	.	.	.
=12	=12	=12	=12	=12	=12	=12	=12	=12	=12	=12	=12	=12
1G	-ne,	1E	.	1B	.	1g	pe-	Bin-	ser-	fait	-no-	-vant
0D	.	0F	.	1.A	-mi-	1.a	.	.	-vi-	.	.	.
.	.	.	.	[2d	.	2g	.	.	.	.	.	.
=13	=13	=13	=13	=13	=13	=13	=13	=13	=13	=13	=13	=13
1r	.	1G	-mi-	1.d]	.	1b-i	-re	-chois,	-teur	deul	-rab-	dieu
2D	do-	2F	.	.	.	2a	.	.	.	.	.	.
2E	.	2G	.	2c	.	1g	.	.	.	.	.	.
1D	.	1A	-ne,	1d	-ne,	.	.	.	.	.	.	.
.	.	.	.	.	.	2f#i	.	.	.	.	.	.
=14	=14	=14	=14	=14	=14	=14	=14	=14	=14	=14	=14	=14
[0.GG	.	0.G	do-	1r	.	1.g	.	.	.	.	-le	.
.	.	.	.	0d	do-	.	.	.	.	.	.	.
.	.	.	.	.	.	2b-i	de	pa-	a	et	mon-	en
.	.	.	.	.	.	2a	jo-	-tron	re-	noir	-da-	hu-
.	.	.	.	.	.	[2g	-yeu-	de	.	a	.	-mi-
=15	=15	=15	=15	=15	=15	=15	=15	=15	=15	=15	=15	=15
0GG]	.	1D	-na	1d	-na	2g]	.	.	.	.	.	.
.	.	.	.	.	.	4f	-se-	bon-	-gre-	por-	-ni-	-li-
.	.	.	.	.	.	4e	.	.	.	.	.	.
.	.	0G	.	0B-i	.	1d	-t&eacute;,	-t&eacute;.	-t&eacute;	-t&eacute;	-t&eacute;	-t&eacute;
1GG	-na	.	.	.	.	2r	.	.	.	.	.	.
.	.	.	.	.	.	2e	.	.	.	.	.	.
=16	=16	=16	=16	=16	=16	=16	=16	=16	=16	=16	=16	=16
1D	e-	1F	e-	0A	e-	2f	.	.	.	.	.	.
.	.	.	.	.	.	2d	.	.	.	.	.	.
0AA	.	1E	.	.	.	2.c	.	.	.	.	.	.
.	.	.	.	.	.	4d	.	.	.	.	.	.
.	.	1C	-i	[1A	-i	1e	.	.	.	.	.	.
=17	=17	=17	=17	=17	=17	=17	=17	=17	=17	=17	=17	=17
1F	-i	1D	.	2A]	.	2d	.	.	.	.	.	.
.	.	.	.	2Bni	.	2f	.	.	.	.	.	.
2E	re-	2C	re-	2.c	re-	2g	.	.	.	.	.	.
2C	.	2AA	.	.	.	2a	.	.	.	.	.	.
.	.	.	.	4B	.	.	.	.	.	.	.	.
1D	[-qui-	1BB-	[-qui-	4G	[-qui-	4g	.	.	.	.	.	.
.	.	.	.	4A	.	4f	.	.	.	.	.	.
.	.	.	.	4G	.	4e	.	.	.	.	.	.
.	.	.	.	4F	.	4d	.	.	.	.	.	.
=18	=18	=18	=18	=18	=18	=18	=18	=18	=18	=18	=18	=18
2EN	-em]	2AAN	-em]	0.AN	-em]-qui-	2cN	.	.	.	.	.	.
2F	.	1D	.	.	.	2A	.	.	.	.	.	.
1D	.	.	.	.	.	2d	.	.	.	.	.	.
.	.	2F	.	.	.	1d	.	.	.	.	.	.
1AA	-qui-	1E	-qui-	.	.	.	.	.	.	.	.	.
.	.	.	.	.	.	2c#i	.	.	.	.	.	.
=19	=19	=19	=19	=19	=19	=19	=19	=19	=19	=19	=19	=19
1r	.	0.Dl	-em,	0.Al	-em,	0.dl	.	.	.	.	.	.
0Al	-em,	.	.	.	.	.	.	.	.	.	.	.
!!LO:LB:i:g=z
=20||	=20||	=20||	=20||	=20||	=20||	=20||	=20||	=20||	=20||	=20||	=20||	=20||
*>B	*>B	*>B	*>B	*>B	*>B	*>B	*>B	*>B	*>B	*>B	*>B	*>B
*clefF4	*	*clefF4	*	*clefGv2	*	*clefG2	*	*	*	*	*	*
*k[b-]	*	*k[]	*	*k[]	*	*k[]	*	*	*	*	*	*
*M2/1	*	*M2/1	*	*M2/1	*	*M2/1	*	*	*	*	*	*
*met(C|)	*	*met(C|)	*	*met(C|)	*	*met(C|)	*	*	*	*	*	*
!!!OMD: Son corps est plaint
!!section: Son corps est plaint
1.AA	Quem	[0E	Quem	[0A	Quem	0r	.	.	.	.	.	.
2BB-	.	.	.	.	.	.	.	.	.	.	.	.
=21	=21	=21	=21	=21	=21	=21	=21	=21	=21	=21	=21	=21
1C	.	1E]	.	1A]	.	0r	.	.	.	.	.	.
1D	in	1F	in	1B	in	.	.	.	.	.	.	.
=22	=22	=22	=22	=22	=22	=22	=22	=22	=22	=22	=22	=22
0E	cru-	0G	cru-	1.c	cru-	0r	.	.	.	.	.	.
.	.	.	.	2B	.	.	.	.	.	.	.	.
=23	=23	=23	=23	=23	=23	=23	=23	=23	=23	=23	=23	=23
[0D	-ce	0A	-ce	0d	-ce	0r	.	.	.	.	.	.
=24	=24	=24	=24	=24	=24	=24	=24	=24	=24	=24	=24	=24
0D]	re-	0A	re-	1r	.	0f	Son	Pleu-	-Tant	.	.	.
.	.	.	.	1D	re-	.	.	.	.	.	.	.
=25	=25	=25	=25	=25	=25	=25	=25	=25	=25	=25	=25	=25
0AA	-de-	0A	-de-	1E	-de-	1e	corps	-rez	luy	.	.	.
.	.	.	.	1F	.	1c	.	.	.	.	.	.
=26	=26	=26	=26	=26	=26	=26	=26	=26	=26	=26	=26	=26
[0GG	-mi-	[0B	-mi-	3%4GV	-mi-	0d	.	.	.	.	.	.
.	.	.	.	[3%2DZ	.	.	.	.	.	.	.	.
=27	=27	=27	=27	=27	=27	=27	=27	=27	=27	=27	=27	=27
0GG]	.	0B]	.	3%2DV	.	0d	est	hom-	soit	.	.	.
.	.	.	.	3%4GZ	.	.	.	.	.	.	.	.
=28	=28	=28	=28	=28	=28	=28	=28	=28	=28	=28	=28	=28
0AA	-sti	0A	-sti	[0E	.	1.c	plaint	-mes	en	.	.	.
.	.	.	.	.	.	2d	.	.	.	.	.	.
=29	=29	=29	=29	=29	=29	=29	=29	=29	=29	=29	=29	=29
[0C	pre-	0G	pre-	1E]	.	0e	.	.	.	.	.	.
.	.	.	.	[1c	.	.	.	.	.	.	.	.
=30	=30	=30	=30	=30	=30	=30	=30	=30	=30	=30	=30	=30
0C]	-ci-	0G	-ci-	0c]	.	1r	.	.	.	.	.	.
.	.	.	.	.	.	1e	et	de	chres-	.	.	.
=31	=31	=31	=31	=31	=31	=31	=31	=31	=31	=31	=31	=31
0D	-o-	0F	-o-	0A	-sti	1f	la-	fe-	-ti-	.	.	.
.	.	.	.	.	.	1d	.	.	.	.	.	.
=32	=32	=32	=32	=32	=32	=32	=32	=32	=32	=32	=32	=32
1C	-so	1E	-so	0r	.	1e	.	.	.	.	.	.
1AA	san-	[1A	san-	.	.	1c	.	.	.	.	.	.
=33	=33	=33	=33	=33	=33	=33	=33	=33	=33	=33	=33	=33
0E	-gui-	1A]	.	0r	.	0B	-men-	-aul-	-en-	.	.	.
.	.	1G#i	-gui-	.	.	.	.	.	.	.	.	.
=34	=34	=34	=34	=34	=34	=34	=34	=34	=34	=34	=34	=34
[0AA	-ne,	0A	-ne,	1c	pre-	0A	-t&eacute;	-t&eacute;	-t&eacute;	.	.	.
.	.	.	.	1d	-ci-	.	.	.	.	.	.	.
=35	=35	=35	=35	=35	=35	=35	=35	=35	=35	=35	=35	=35
0AA]	.	0r	.	0e	-o-	0c	Qui	L'hom-	Son	.	.	.
=36	=36	=36	=36	=36	=36	=36	=36	=36	=36	=36	=36	=36
0r	.	0A	Pi-	1.c	.	1f	gist	-me	nom	.	.	.
.	.	.	.	.	.	[1e	.	.	.	.	.	.
.	.	.	.	2A	.	.	.	.	.	.	.	.
=37	=37	=37	=37	=37	=37	=37	=37	=37	=37	=37	=37	=37
0r	.	1G	-e	1B	.	2e]	.	.	.	.	.	.
.	.	.	.	.	.	2d	.	.	.	.	.	.
.	.	1F	Jhe-	1A	-so	[1d	soubz	sans	est	.	.	.
=38	=38	=38	=38	=38	=38	=38	=38	=38	=38	=38	=38	=38
0r	.	0E	-su,	2G	san-	1d]	.	.	.	.	.	.
.	.	.	.	1G	-gui-	.	.	.	.	.	.	.
.	.	.	.	.	.	1c#i	.	.	.	.	.	.
.	.	.	.	2F	.	.	.	.	.	.	.	.
=39	=39	=39	=39	=39	=39	=39	=39	=39	=39	=39	=39	=39
0D	Pi-	1D	Do-	[0A	-ne,	1d	la-	bla-	fa-	.	.	.
.	.	[1F	.	.	.	2A	.	.	.	.	.	.
.	.	.	.	.	.	2B	.	.	.	.	.	.
=40	=40	=40	=40	=40	=40	=40	=40	=40	=40	=40	=40	=40
0AA	-e	1F]	.	0A]	.	2d	.	.	.	.	.	.
.	.	.	.	.	.	1c#i	.	.	.	.	.	.
.	.	1E	.	.	.	.	.	.	.	.	.	.
.	.	.	.	.	.	2B	.	.	.	.	.	.
=41	=41	=41	=41	=41	=41	=41	=41	=41	=41	=41	=41	=41
0BB-	Jhe-	0D	.	1F	Pi-	1d	-me.	-me.	-me.	.	.	.
.	.	.	.	1G	.	1r	.	.	.	.	.	.
=42	=42	=42	=42	=42	=42	=42	=42	=42	=42	=42	=42	=42
[0AA	-su,	0E	.	1A	.	1.c	He-	Vueil-	Qu'i	.	.	.
.	.	.	.	[1A	-e	.	.	.	.	.	.	.
.	.	.	.	.	.	2d	.	.	.	.	.	.
=43	=43	=43	=43	=43	=43	=43	=43	=43	=43	=43	=43	=43
0AA]	.	0C	.	2A]	.	0e	.	.	.	.	.	.
.	.	.	.	2G	.	.	.	.	.	.	.	.
.	.	.	.	1E	.	.	.	.	.	.	.	.
=44	=44	=44	=44	=44	=44	=44	=44	=44	=44	=44	=44	=44
0A	Do-	0D	-mi-	1D	Jhe-	0f	-las,	-lez	.	.	.	.
.	.	.	.	[1d	.	.	.	.	.	.	.	.
=45	=45	=45	=45	=45	=45	=45	=45	=45	=45	=45	=45	=45
0F	.	0D	-ne,	2d]	.	1d	plai-	vos-	de-	.	.	.
.	.	.	.	2c	.	.	.	.	.	.	.	.
.	.	.	.	[1A	-su,	[1a	.	.	-no-	.	.	.
=46	=46	=46	=46	=46	=46	=46	=46	=46	=46	=46	=46	=46
0D	.	0r	.	1A]	.	2a]	.	.	.	.	.	.
.	.	.	.	.	.	2g	.	.	.	.	.	.
.	.	.	.	1d	Do-	1f	-se	-tre u-	-ment	.	.	.
=47	=47	=47	=47	=47	=47	=47	=47	=47	=47	=47	=47	=47
1C	.	0r	.	1e	-mi-	1e	vous	-ni-	grant	.	.	.
[1D	.	.	.	1f	.	1d	.	.	.	.	.	.
=48	=48	=48	=48	=48	=48	=48	=48	=48	=48	=48	=48	=48
1D]	.	0r	.	1d	-ne,	1f	en	-ver-	vou-	.	.	.
1BB-	.	.	.	1r	.	2e	pi-	-si-	-len-	.	.	.
.	.	.	.	.	.	2d	.	.	.	.	.	.
=49	=49	=49	=49	=49	=49	=49	=49	=49	=49	=49	=49	=49
1C	.	0r	.	1e	Pi-	2c	-ti&eacute;&	-t&eacute;&	-t&eacute;.&	.	.	.
.	.	.	.	.	.	2B	.	.	.	.	.	.
1D	-mi-	.	.	1d	-e	1A	.	.	.	.	.	.
=50	=50	=50	=50	=50	=50	=50	=50	=50	=50	=50	=50	=50
1AA	-ne,	1A	Pi-	1c	Jhe-	0r	.	.	.	.	.	.
1r	.	1G	-e	2B	-su,	.	.	.	.	.	.	.
.	.	.	.	2c	.	.	.	.	.	.	.	.
=51	=51	=51	=51	=51	=51	=51	=51	=51	=51	=51	=51	=51
1D	Pi-	1F	Jhe-	1d	Do-	0r	.	.	.	.	.	.
1C	-e	1E	-su,	1e	.	.	.	.	.	.	.	.
=52	=52	=52	=52	=52	=52	=52	=52	=52	=52	=52	=52	=52
1BB-	Jhe-	1G	Do-	1d	.	0r	.	.	.	.	.	.
1AA	-su,	1A	-mi-	2c	.	.	.	.	.	.	.	.
.	.	.	.	[2e	.	.	.	.	.	.	.	.
=53	=53	=53	=53	=53	=53	=53	=53	=53	=53	=53	=53	=53
1C	Do-	0A	-ne,	2e]	.	0r	.	.	.	.	.	.
.	.	.	.	2f	.	.	.	.	.	.	.	.
1D	-mi-	.	.	[1d	.	.	.	.	.	.	.	.
=54	=54	=54	=54	=54	=54	=54	=54	=54	=54	=54	=54	=54
1D	-ne,	1r	.	2d]	.	1.f	Pri-	Pri-	Pri-	.	.	.
.	.	.	.	2c	.	.	.	.	.	.	.	.
1r	.	1F	do-	2B	-mi-	.	.	.	.	.	.	.
.	.	.	.	2A	.	4e	.	.	.	.	.	.
.	.	.	.	.	.	4d	.	.	.	.	.	.
=55	=55	=55	=55	=55	=55	=55	=55	=55	=55	=55	=55	=55
1.AA	do-	1E	.	1A	-ne,	1.c	.	.	.	.	.	.
.	.	2F	.	1r	.	.	.	.	.	.	.	.
[2GG	.	[2G	.	.	.	[2d	-er	-er	-ez	.	.	.
=56	=56	=56	=56	=56	=56	=56	=56	=56	=56	=56	=56	=56
1GG]	.	2G]	.	1B-i	do-	1d]	.	.	.	.	.	.
.	.	2F	.	.	.	.	.	.	.	.	.	.
1AA	-na	1E	-na	1A	-na	1c	pour	pour	pour	.	.	.
=57	=57	=57	=57	=57	=57	=57	=57	=57	=57	=57	=57	=57
1BB-	e-	1D	e-	1G	e-	2.d	l'a-	l'a-	l'a-	.	.	.
.	.	.	.	.	.	4B	.	.	.	.	.	.
1AA	-i	1E	-i	1A	-i	2c	.	.	.	.	.	.
.	.	.	.	.	.	2e	.	.	.	.	.	.
=58	=58	=58	=58	=58	=58	=58	=58	=58	=58	=58	=58	=58
0D	re-	0F	re-	0B-i	re-	0d	.	.	.	.	.	.
=59	=59	=59	=59	=59	=59	=59	=59	=59	=59	=59	=59	=59
0AA	-qui-	0E	-qui-	0A	-qui-	0c#i	.	.	.	.	.	.
=60	=60	=60	=60	=60	=60	=60	=60	=60	=60	=60	=60	=60
0Dl	-em.	0Dl	-em.	0Al	-em.	0dl	-me.	-me.	-me.	.	.	.
==	==	==	==	==	==	==	==	==	==	==	==	==
*-	*-	*-	*-	*-	*-	*-	*-	*-	*-	*-	*-	*-
!!!RDF**kern: l = long note in original notation
!!!RDF**kern: i = editorial accidental
!!!RDF**kern: V = start of tuplet marker
!!!RDF**kern: Z = end of tuplet marker
!!!RDF**kern: N = signum congruentiae
!!!ENC: Jesse Rodin 17 April 2018
!!!END: 2018/04/17/
!!!EED: Jesse Rodin
!!!EEV: 2018/07/23/
!!!ONB: Translated from MusicXML and edited on 2018/07/23/ by Craig Sapp
!!muse2ps: C^@{COM}\nEd. @{EED}^i2I175v85,75,75,110Q16z18l2800t75
